apps/www/public/images/career/icons/honesty-light.svg

<svg width="49" height="48" viewBox="0 0 49 48" fill="none" xmlns="http://www.w3.org/2000/svg">
<rect x="0.828125" width="48" height="48" rx="8" fill="#DDF3E4"/>
<path d="M25.029 21.5028L31.4845 16.7603C33.0729 15.5934 34.0112 13.74 34.0113 11.769C34.0113 9.29518 32.0059 7.28978 29.5321 7.28978C27.0583 7.28978 25.0289 9.29519 25.0289 11.769C25.0289 9.29519 23.0235 7.28978 20.5497 7.28978C18.0759 7.28978 16.0705 9.29519 16.0705 11.769C16.0704 13.7403 17.0075 15.5944 18.5948 16.7635L25.029 21.5028Z" fill="#5BB98C" stroke="#299764" stroke-width="2" stroke-miterlimit="10" stroke-linejoin="bevel"/>
<path d="M13.84 42.3721V35.4475L6.85449 30.6533L6.85449 16.3203C6.85449 15.2094 7.75504 14.3088 8.86591 14.3088V14.3088C9.97679 14.3088 10.8773 15.2094 10.8773 16.3203V26.2064L15.8137 29.4578M20.7043 42.3721V31.7677C20.7043 29.0313 19.3057 26.4848 16.9965 25.0166L10.8773 21.1262" stroke="#299764" stroke-width="2" stroke-linejoin="bevel"/>
<path d="M36.2191 42.3721V35.4475L43.2046 30.6533L43.2046 16.3203C43.2046 15.2094 42.304 14.3088 41.1932 14.3088V14.3088C40.0823 14.3088 39.1817 15.2094 39.1817 16.3203V26.2064L34.2454 29.4578M29.3548 42.3721V31.7677C29.3548 29.0313 30.7534 26.4848 33.0626 25.0166L39.1817 21.1262" stroke="#299764" stroke-width="2" stroke-linejoin="bevel"/>
<path d="M11.2598 42.186H22.9141" stroke="#299764" stroke-width="2" stroke-linejoin="bevel"/>
<path d="M27.0825 42.186H38.7368" stroke="#299764" stroke-width="2" stroke-linejoin="bevel"/>
</svg>

<svg xmlns="http://www.w3.org/2000/svg" width="49" height="48" fill="none" viewBox="0 0 49 48"><rect width="48" height="48" x=".828" fill="#ddf3e4" rx="8"/><path fill="#5bb98c" stroke="#299764" stroke-linejoin="bevel" stroke-miterlimit="10" stroke-width="2" d="m25.029 21.503 6.456-4.743a6.2 6.2 0 0 0 2.526-4.991 4.48 4.48 0 0 0-4.479-4.48c-2.474 0-4.503 2.006-4.503 4.48a4.48 4.48 0 1 0-8.958 0c0 1.971.936 3.825 2.524 4.995z"/><path stroke="#299764" stroke-linejoin="bevel" stroke-width="2" d="M13.84 42.372v-6.925l-6.986-4.794V16.32a2.011 2.011 0 0 1 4.023 0v9.886l4.937 3.252m4.89 12.914V31.768a8 8 0 0 0-3.707-6.751l-6.12-3.89M36.22 42.372v-6.925l6.985-4.794V16.32a2.012 2.012 0 0 0-4.023 0v9.886l-4.937 3.252m-4.89 12.914V31.768a8 8 0 0 1 3.708-6.751l6.119-3.89M11.26 42.186h11.654M27.083 42.186h11.654"/></svg>
